static/img/Illustration.svg

<svg width="375" height="325" viewBox="0 0 375 325" fill="none" xmlns="http://www.w3.org/2000/svg">
<mask id="mask0" mask-type="alpha" maskUnits="userSpaceOnUse" x="0" y="0" width="375" height="325">
<rect width="375" height="325" fill="white"/>
</mask>
<g mask="url(#mask0)">
<path d="M362.59 51.48C359.49 51.48 356.58 52.27 354.05 53.64C349.53 43.32 338.99 36.09 326.71 36.09C311.38 36.09 298.77 47.36 297.18 61.83C294.87 60.75 292.31 60.13 289.6 60.13C282.25 60.13 275.95 64.55 273.17 70.87C269.35 69.44 265.21 68.64 260.87 68.64C255.57 68.64 250.56 69.81 246.08 71.9H224.88C220.48 66.31 213.66 62.72 206 62.72C198.34 62.72 191.52 66.31 187.12 71.9H180.37C180.39 71.42 180.41 70.93 180.41 70.44C180.41 54.52 167.11 41.61 150.71 41.61C148.42 41.61 146.2 41.87 144.07 42.34C144.1 41.93 144.13 41.51 144.13 41.09C144.13 31.67 136.26 24.04 126.56 24.04C118.93 24.04 112.45 28.77 110.03 35.38C107.49 34.23 104.75 33.43 101.88 33.02C101.67 14.2 85.9 -1 66.46 -1C48.69 -1 33.99 11.7 31.44 28.26C29.06 27.09 26.38 26.42 23.53 26.42C15.51 26.42 8.76002 31.64 6.65001 38.77C1.91002 36.08 -3.18 34.26 -9 34V138H376V57C372.78 53.5 367.8 51.48 362.59 51.48Z" fill="#D3F2EE"/>
<path d="M275.481 94.9099H266.431V57.7999L252.621 53.2199V35.6699L244.491 28.5999H237.451L229.541 35.6699V82.0599H224.641V22.6499H201.431V98.2499H194.481V40.0999H171.271V86.6999H164.021V57.2299L145.171 69.6599V101.46H139.051V71.5299H133.871L131.801 64.0699H129.291C128.131 62.5299 126.121 61.5099 123.821 61.5099C121.521 61.5099 119.511 62.5299 118.351 64.0699H115.841L113.771 71.5299H108.591V99.5099H102.831L97.3115 105.73V117.16L90.9315 113.81H88.9115C86.7415 113.81 84.9915 115.44 84.9915 117.44V129.97V151.34H268.671L275.491 140.05V94.9099H275.481Z" fill="#82B7BF"/>
<path d="M-16.1985 73.26H31.7815C56.8815 73.26 80.6415 84.64 96.3715 104.19L103.891 113.54C107.711 118.29 113.481 121.05 119.581 121.05H134.281C143.561 121.05 152.351 125.23 158.211 132.42C160.001 134.61 162.671 135.88 165.501 135.88H203.611L212.401 183.38L-20.8685 180.12L-16.1985 73.26Z" fill="#83CCAE"/>
<path d="M366.3 83.97C365.89 83.07 365.41 82.17 364.87 81.27C363.82 79.53 362.37 78.07 360.65 77.01C351.04 71.09 341.32 73 335.2 78.71C329.97 75.56 323.84 73.74 317.28 73.74C309.15 73.74 301.68 76.53 295.76 81.2L291.51 69.06C291.19 68.16 289.92 68.16 289.6 69.06L284.39 83.96H283.92L281.83 78C281.51 77.1 280.24 77.1 279.92 78L277.83 83.96H271.61C263.95 83.96 256.74 87.59 252.18 93.74C248.71 98.42 243.67 101.69 237.98 102.95L228.04 105.15C227.44 105.28 226.84 105.42 226.25 105.57C207.78 110.18 192.55 123.53 185 141L185 152H375V84L366.3 83.97Z" fill="#5DBA9E"/>
<path d="M375 188.045V97.9145C371.789 98.7719 368.906 100.377 366.537 102.521C361.171 99.3801 354.883 97.5656 348.153 97.5656C336.325 97.5656 325.84 103.169 319.347 111.783C319.09 111.305 318.813 110.816 318.505 110.337C317.428 108.603 315.941 107.147 314.176 106.09C304.318 100.188 294.346 102.092 288.068 107.785C282.703 104.644 276.414 102.83 269.684 102.83C252.347 102.83 237.903 114.844 234.672 130.776C228.609 128.184 221.017 128.334 213.477 133.219C212.144 134.087 210.995 135.223 210.143 136.539C206.645 141.943 191.349 137.347 191.349 137.347H132.013C129.11 137.347 126.361 136.081 124.534 133.897C118.523 126.728 109.506 122.561 99.9855 122.561H84.9052C78.6474 122.561 72.7282 119.809 68.8093 115.073L61.0948 105.751C44.9477 86.2493 28.5748 73.1883 2.81529 73.1883H0.50709L-3.02189 63.3876C-3.38095 62.3806 -4.83768 62.3806 -5.20699 63.3876L-8.03839 71.2541L-15.6914 50.0175C-16.1633 48.7214 -18.0509 48.7214 -18.5228 50.0175L-20 54.1252V180.568L230.301 186.38L375 188.045Z" fill="#4DAC92"/>
<path d="M290.691 135.08H53.5215V138.86H290.691V135.08Z" fill="#D3F2EE"/>
<path d="M268.182 263.079C269.832 219.059 216.422 191.749 190.082 180.229C182.792 177.039 174.172 173.589 158.792 171.469C126.312 166.989 87.0119 165.759 83.0619 166.149L70.1819 177.649C142.022 177.649 151.402 224.129 128.652 238.509C87.5319 264.499 87.4019 266.139 34.7719 277.649C34.7719 278.199 14.2919 314.839 13.2219 327.329H240.432C254.092 308.139 268.182 263.079 268.182 263.079Z" fill="white"/>
<path d="M163.282 157.57C161.312 157.57 159.372 157.69 157.462 157.91C174.762 159.89 189.402 170.58 196.902 185.49H208.542C200.212 168.93 183.082 157.57 163.282 157.57Z" fill="#116A7D"/>
<path d="M59.3015 143.1V185.49H106.382H118.022C125.522 170.58 140.162 159.89 157.462 157.91C159.372 157.69 161.312 157.57 163.282 157.57C183.082 157.57 200.212 168.94 208.542 185.5H298.212V143.1H59.3015Z" fill="#D3F2EE"/>
<path d="M195.679 187.611C192.554 186.104 189.315 184.676 185.973 183.327C178.537 193.274 164.438 200.849 151.049 204.261C151.414 204.885 151.745 205.53 152.064 206.185C168.567 205.213 185.871 198.123 195.679 187.611Z" fill="#C2EBE9"/>
<path d="M238.798 224.543H160.302C160.291 225.823 160.237 227.083 160.161 228.323H240.941C240.281 227.053 239.556 225.803 238.798 224.543Z" fill="#F2FDFB"/>
<path d="M195.844 187.168C186.536 197.778 167.511 205.02 151.849 206C155.554 209.5 160.038 214.908 160.103 220.408H235.828C226.888 207.568 213.206 196.048 195.844 187.168Z" fill="#F2FDFB"/>
<path d="M210.611 187.91L225.341 169.08C230.821 162.66 238.431 158.44 246.781 157.2C246.851 157.19 246.911 157.18 246.981 157.17C256.131 155.75 264.081 150.09 268.811 142.13C273.421 134.39 288.901 123.36 299.661 120.84C311.961 117.96 375 117 375 117V254.5L266.065 250.997L210.611 187.91Z" fill="#5095A0"/>
<path d="M147.132 170C204.572 179.15 247.222 217.042 247.222 255.442C247.222 295.342 211.892 325.002 157.282 334.952H246.292C268.412 318.002 274.702 295.102 274.702 269.892C274.682 218.372 217.572 171.24 147.132 170Z" fill="white"/>
<path d="M151.435 219.197C152.569 227 152.677 236.68 149.978 243.37L148.429 256.481L-24.2904 219.28V100.58H1.14432C10.708 101.24 19.8219 104.94 27.2147 111.14L31.4391 98.4002C31.7423 97.4802 33.0135 97.4802 33.3167 98.4002L42.0491 124.77L45.2957 114.99C45.5989 114.07 46.8701 114.07 47.1732 114.99L55.6515 139.86C64.1884 148.19 75.5416 152.86 87.3642 152.86C129.433 159.72 150.301 211.394 151.435 219.197Z" fill="#5095A0"/>
<path d="M327.288 166.512C341.502 166.512 353.024 155.289 353.024 141.445C353.024 127.6 341.502 116.377 327.288 116.377C313.074 116.377 301.551 127.6 301.551 141.445C301.551 155.289 313.074 166.512 327.288 166.512Z" fill="#5DBA9E"/>
<path d="M329.198 175.884V163.684C329.232 163.643 329.265 163.6 329.296 163.555L340.205 148.007L337.052 145.909L329.198 157.102V137.991H325.379V146.388L317.162 138.908L314.557 141.617L325.349 151.441C325.359 151.45 325.369 151.459 325.379 151.468V178.008C320.91 180.701 316.755 183.963 313.025 187.748L301.621 199.318C296.786 204.224 290.204 206.984 283.337 206.984C275.963 206.984 268.943 210.164 264.056 215.719L243.508 239.074L255 325H441.802V193.031C441.802 167.358 419.968 145.664 396.903 156.937L385.227 162.644C376.656 166.833 367.251 169.009 357.722 169.009C347.714 169.009 337.954 171.407 329.198 175.884Z" fill="white"/>
<path d="M57.335 157.089C70.3293 157.089 80.8633 146.829 80.8633 134.172C80.8633 121.516 70.3293 111.255 57.335 111.255C44.3407 111.255 33.8068 121.516 33.8068 134.172C33.8068 146.829 44.3407 157.089 57.335 157.089Z" fill="#5DBA9E"/>
<path d="M85.4866 173.511C76.2823 173.511 68.8207 166.243 68.8207 157.278C68.8207 148.313 76.2823 141.045 85.4866 141.045C94.6909 141.045 102.152 148.313 102.152 157.278C102.152 166.243 94.6909 173.511 85.4866 173.511Z" fill="#116A7D"/>
<path d="M59.0814 154.504V179.367C64.8643 180.963 70.9095 181.79 77.032 181.79H79.4498C81.0058 181.79 82.5589 181.838 84.1066 181.934V171.178C84.094 171.163 84.0817 171.147 84.0697 171.132C84.0582 171.117 84.047 171.101 84.0361 171.085L76.1547 159.853L78.4328 158.337L84.1066 166.423V152.617H86.8658V158.683L92.8019 153.279L94.6838 155.236L86.8874 162.334L86.8658 162.353V182.155C94.3081 182.889 101.588 184.724 108.414 187.603L111.601 188.946C129.191 196.363 143.488 209.042 152.131 224.888L157 233.816V325H0V158.045C13.7941 158.045 28.0485 162.124 38.9425 169.858C44.0185 173.462 49.6389 176.298 55.5898 178.299V143.336C55.5806 143.328 55.5715 143.32 55.5624 143.312L45.6963 134.33L48.0778 131.853L55.5898 138.692V131.016H59.0814V148.487L66.2614 138.254L69.1442 140.172L59.1707 154.387C59.1423 154.427 59.1125 154.466 59.0814 154.504Z" fill="white"/>
</g>
<path opacity="0.24" d="M171.368 297.78L170.352 298.66C169.337 299.53 168.76 300.76 168.76 302.04V313.05C168.76 313.05 209.01 299.31 207.054 267.45L171.368 297.78Z" fill="url(#paint0_linear)"/>
<path d="M172.789 287.44L168 289.045L168.172 296.02C168.268 298.45 170.972 299.99 173.324 298.96C183.926 294.29 209.085 283.09 207.973 258.41L193.801 270.46L172.789 287.44Z" fill="#116A7D"/>
<path d="M168 289.045C169.86 285.685 177.299 272.6 189.932 262.13C193.352 259.3 202.811 252.23 205.996 249.86C206.498 249.48 207.246 249.73 207.385 250.33C208.774 256.44 211.648 282.765 168 289.045Z" fill="#E8F9F7"/>
<path d="M163.726 263.32L160.328 261.18C159.986 260.97 159.9 260.53 160.125 260.22L162.177 257.36C162.401 257.04 162.871 256.96 163.203 257.17L165.8 258.8C167.659 259.97 169.059 261.68 169.786 263.67L170.021 264.12L169.359 264.95L167.969 264.84C166.452 264.65 164.998 264.12 163.726 263.32Z" fill="#116A7D"/>
<path d="M206.912 287.196L169.513 263.666L168.851 264.587L206.25 288.117L206.912 287.196Z" fill="#116A7D"/>
<path d="M185.73 268.317C185.753 266.572 184.408 265.142 182.726 265.122C181.043 265.103 179.661 266.502 179.638 268.247C179.615 269.992 180.96 271.422 182.642 271.442C184.325 271.461 185.707 270.062 185.73 268.317Z" fill="#116A7D"/>
<path d="M191.397 279.08C190.745 277.82 189.227 274.83 188.351 273.1C187.945 272.31 187.1 271.8 186.17 271.79L185.583 271.78C184.963 271.77 184.471 271.3 184.482 270.72L184.492 269.73L181.062 269.69L181.051 270.68C181.04 271.26 180.538 271.72 179.918 271.71H179.694C178.668 271.7 177.684 272.09 176.979 272.78L175.365 274.37C174.863 274.86 174.809 275.64 175.29 276.16C175.803 276.72 176.69 276.78 177.278 276.31L177.727 275.95C177.887 275.83 178.123 275.93 178.123 276.12L178.069 279.97C178.037 282.42 180.153 284.44 182.782 284.44H182.921C185.38 284.45 187.389 282.6 187.421 280.29L187.442 278.41C187.442 278.31 187.517 278.21 187.624 278.19C187.731 278.17 187.838 278.21 187.891 278.3C188.073 278.6 188.596 279.48 189.013 280.19C189.334 280.73 190.018 281 190.649 280.79C191.386 280.56 191.739 279.75 191.397 279.08Z" fill="#116A7D"/>
<path d="M190.125 277.25C190.488 276.71 191.311 276.66 191.739 277.16L192.134 277.61C192.391 277.9 192.433 278.31 192.252 278.64L191.322 280.3L190.477 279.06" fill="#116A7D"/>
<path d="M198.292 255.19C198.315 253.445 196.97 252.014 195.288 251.995C193.606 251.976 192.223 253.375 192.201 255.12C192.178 256.865 193.523 258.295 195.205 258.314C196.887 258.334 198.269 256.935 198.292 255.19Z" fill="#116A7D"/>
<path d="M203.954 265.95C203.302 264.69 201.785 261.7 200.908 259.97C200.502 259.18 199.658 258.67 198.728 258.66L198.14 258.65C197.52 258.64 197.029 258.17 197.039 257.59L197.05 256.6L193.619 256.56L193.609 257.55C193.598 258.13 193.096 258.59 192.476 258.58H192.39C191.268 258.57 190.199 258.99 189.43 259.75L187.912 261.24C187.41 261.73 187.356 262.51 187.837 263.03C188.35 263.59 189.237 263.65 189.825 263.18L190.274 262.82C190.434 262.7 190.67 262.8 190.67 262.99L190.616 266.65C190.584 269.1 192.7 271.12 195.329 271.12H195.468C197.927 271.13 199.936 269.28 199.968 266.97L199.989 265.29C199.989 265.19 200.064 265.09 200.171 265.07C200.278 265.05 200.385 265.09 200.438 265.18C200.62 265.48 201.144 266.36 201.56 267.07C201.881 267.61 202.565 267.88 203.196 267.67C203.954 267.42 204.296 266.62 203.954 265.95Z" fill="#116A7D"/>
<path d="M179.395 250.84L175.996 248.7C175.654 248.49 175.568 248.05 175.793 247.74L177.845 244.88C178.069 244.56 178.54 244.48 178.871 244.69L181.468 246.32C183.328 247.49 184.728 249.2 185.454 251.19L185.69 251.64L185.027 252.47L183.638 252.36C182.109 252.16 180.666 251.64 179.395 250.84Z" fill="#116A7D"/>
<path d="M222.574 274.706L185.175 251.175L184.513 252.096L221.912 275.627L222.574 274.706Z" fill="#116A7D"/>
<path d="M203.805 267.3L206.081 264.99C206.487 264.58 206.455 263.95 206.017 263.57C205.579 263.19 204.906 263.22 204.499 263.63L202.223 265.94L203.805 267.3Z" fill="#116A7D"/>
<path d="M227.376 273.899L215.962 273.768L215.919 277.108L227.332 277.239L227.376 273.899Z" fill="white"/>
<path d="M214.497 287.019L203.084 286.888L203.04 290.227L214.453 290.359L214.497 287.019Z" fill="white"/>
<defs>
<linearGradient id="paint0_linear" x1="186.878" y1="288.819" x2="191.434" y2="296.123" gradientUnits="userSpaceOnUse">
<stop stop-color="#116A7D"/>
<stop offset="1" stop-color="white"/>
</linearGradient>
</defs>
</svg>

<svg width="375" height="325" fill="none" xmlns="http://www.w3.org/2000/svg">
  <mask id="a" maskUnits="userSpaceOnUse" x="0" y="0" width="375" height="325">
    <path fill="#fff" d="M0 0h375v325H0z"/>
  </mask>
  <g mask="url(#a)">
    <path d="M362.59 51.48c-3.1 0-6.01.79-8.54 2.16-4.52-10.32-15.06-17.55-27.34-17.55-15.33 0-27.94 11.27-29.53 25.74-2.31-1.08-4.87-1.7-7.58-1.7-7.35 0-13.65 4.42-16.43 10.74a35.002 35.002 0 00-12.3-2.23c-5.3 0-10.31 1.17-14.79 3.26h-21.2c-4.4-5.59-11.22-9.18-18.88-9.18-7.66 0-14.48 3.59-18.88 9.18h-6.75c.02-.48.04-.97.04-1.46 0-15.92-13.3-28.83-29.7-28.83-2.29 0-4.51.26-6.64.73.03-.41.06-.83.06-1.25 0-9.42-7.87-17.05-17.57-17.05-7.63 0-14.11 4.73-16.53 11.34a30.048 30.048 0 00-8.15-2.36C101.67 14.2 85.9-1 66.46-1 48.69-1 33.99 11.7 31.44 28.26a17.871 17.871 0 00-7.91-1.84c-8.02 0-14.77 5.22-16.88 12.35C1.91 36.08-3.18 34.26-9 34v104h385V57c-3.22-3.5-8.2-5.52-13.41-5.52z" fill="#D3F2EE"/>
    <path d="M275.481 94.91h-9.05V57.8l-13.81-4.58V35.67l-8.13-7.07h-7.04l-7.91 7.07v46.39h-4.9V22.65h-23.21v75.6h-6.95V40.1h-23.21v46.6h-7.25V57.23l-18.85 12.43v31.8h-6.12V71.53h-5.18l-2.07-7.46h-2.51c-1.16-1.54-3.17-2.56-5.47-2.56s-4.31 1.02-5.47 2.56h-2.51l-2.07 7.46h-5.18v27.98h-5.76l-5.52 6.22v11.43l-6.38-3.35h-2.02c-2.17 0-3.92 1.63-3.92 3.63v33.9h183.68l6.82-11.29V94.91h-.01z" fill="#82B7BF"/>
    <path d="M-16.198 73.26h47.98c25.1 0 48.86 11.38 64.59 30.93l7.519 9.35a20.13 20.13 0 0015.69 7.51h14.7c9.28 0 18.07 4.18 23.93 11.37a9.407 9.407 0 007.29 3.46h38.11l8.79 47.5-233.27-3.26 4.67-106.86z" fill="#83CCAE"/>
    <path d="M366.3 83.97c-.41-.9-.89-1.8-1.43-2.7-1.05-1.74-2.5-3.2-4.22-4.26-9.61-5.92-19.33-4.01-25.45 1.7a34.621 34.621 0 00-17.92-4.97c-8.13 0-15.6 2.79-21.52 7.46l-4.25-12.14c-.32-.9-1.59-.9-1.91 0l-5.21 14.9h-.47L281.83 78c-.32-.9-1.59-.9-1.91 0l-2.09 5.96h-6.22c-7.66 0-14.87 3.63-19.43 9.78a24.184 24.184 0 01-14.2 9.21l-9.94 2.2c-.6.13-1.2.27-1.79.42-18.47 4.61-33.7 17.96-41.25 35.43v11h190V84l-8.7-.03z" fill="#5DBA9E"/>
    <path d="M375 188.045v-90.13a20.478 20.478 0 00-8.463 4.606c-5.366-3.14-11.654-4.955-18.384-4.955-11.828 0-22.313 5.603-28.806 14.217a21.426 21.426 0 00-.842-1.446 12.884 12.884 0 00-4.329-4.247c-9.858-5.902-19.83-3.998-26.108 1.695-5.365-3.141-11.654-4.955-18.384-4.955-17.337 0-31.781 12.014-35.012 27.946-6.063-2.592-13.655-2.442-21.195 2.443a11.357 11.357 0 00-3.334 3.32c-3.498 5.404-18.794.808-18.794.808h-59.336c-2.903 0-5.652-1.266-7.479-3.45-6.011-7.169-15.028-11.336-24.549-11.336h-15.08c-6.258 0-12.177-2.752-16.096-7.488l-7.714-9.322c-16.147-19.502-32.52-32.563-58.28-32.563H.507l-3.529-9.8c-.359-1.007-1.816-1.007-2.185 0l-2.831 7.866-7.653-21.237c-.472-1.296-2.36-1.296-2.832 0L-20 54.125v126.443l250.301 5.812L375 188.045z" fill="#4DAC92"/>
    <path d="M290.691 135.08H53.521v3.78h237.17v-3.78z" fill="#D3F2EE"/>
    <path d="M268.182 263.079c1.65-44.02-51.76-71.33-78.1-82.85-7.29-3.19-15.91-6.64-31.29-8.76-32.48-4.48-71.78-5.71-75.73-5.32l-12.88 11.5c71.84 0 81.22 46.48 58.47 60.86-41.12 25.99-41.25 27.63-93.88 39.14 0 .55-20.48 37.19-21.55 49.68h227.21c13.66-19.19 27.75-64.25 27.75-64.25z" fill="#fff"/>
    <path d="M163.282 157.57c-1.97 0-3.91.12-5.82.34 17.3 1.98 31.94 12.67 39.44 27.58h11.64c-8.33-16.56-25.46-27.92-45.26-27.92z" fill="#116A7D"/>
    <path d="M59.301 143.1v42.39H118.023c7.5-14.91 22.14-25.6 39.44-27.58 1.91-.22 3.85-.34 5.82-.34 19.8 0 36.93 11.37 45.26 27.93h89.67v-42.4H59.302z" fill="#D3F2EE"/>
    <path d="M195.679 187.611a161.634 161.634 0 00-9.706-4.284c-7.436 9.947-21.535 17.522-34.924 20.934a28.61 28.61 0 011.015 1.924c16.503-.972 33.807-8.062 43.615-18.574z" fill="#C2EBE9"/>
    <path d="M238.798 224.543h-78.496a71.788 71.788 0 01-.141 3.78h80.78a69.8 69.8 0 00-2.143-3.78zM195.844 187.168c-9.308 10.61-28.333 17.852-43.995 18.832 3.705 3.5 8.189 8.908 8.254 14.408h75.725c-8.94-12.84-22.622-24.36-39.984-33.24z" fill="#F2FDFB"/>
    <path d="M210.611 187.91l14.73-18.83a34.929 34.929 0 0121.44-11.88l.2-.03c9.15-1.42 17.1-7.08 21.83-15.04 4.61-7.74 20.09-18.77 30.85-21.29C311.961 117.96 375 117 375 117v137.5l-108.935-3.503-55.454-63.087z" fill="#5095A0"/>
    <path d="M147.132 170c57.44 9.15 100.09 47.042 100.09 85.442 0 39.9-35.33 69.56-89.94 79.51h89.01c22.12-16.95 28.41-39.85 28.41-65.06-.02-51.52-57.13-98.652-127.57-99.892z" fill="#fff"/>
    <path d="M151.435 219.197c1.134 7.803 1.242 17.483-1.457 24.173l-1.549 13.111-172.72-37.201v-118.7H1.145c9.564.66 18.678 4.36 26.07 10.56L31.44 98.4a.984.984 0 011.878 0l8.732 26.37 3.247-9.78a.984.984 0 011.877 0l8.478 24.87c8.537 8.33 19.89 13 31.713 13 42.069 6.86 62.937 58.534 64.071 66.337z" fill="#5095A0"/>
    <path d="M327.288 166.512c14.214 0 25.736-11.223 25.736-25.067 0-13.845-11.522-25.068-25.736-25.068s-25.737 11.223-25.737 25.068c0 13.844 11.523 25.067 25.737 25.067z" fill="#5DBA9E"/>
    <path d="M329.198 175.884v-12.2a1.82 1.82 0 00.098-.129l10.909-15.548-3.153-2.098-7.854 11.193v-19.111h-3.819v8.397l-8.217-7.48-2.605 2.709 10.792 9.824.03.027v26.54a62.977 62.977 0 00-12.354 9.74l-11.404 11.57a25.67 25.67 0 01-18.284 7.666 25.68 25.68 0 00-19.281 8.735l-20.548 23.355L255 325h186.802V193.031c0-25.673-21.834-47.367-44.899-36.094l-11.676 5.707a62.633 62.633 0 01-27.505 6.365 62.639 62.639 0 00-28.524 6.875z" fill="#fff"/>
    <path d="M57.335 157.089c12.994 0 23.528-10.26 23.528-22.917 0-12.656-10.534-22.917-23.528-22.917-12.994 0-23.528 10.261-23.528 22.917 0 12.657 10.534 22.917 23.528 22.917z" fill="#5DBA9E"/>
    <path d="M85.487 173.511c-9.205 0-16.666-7.268-16.666-16.233s7.461-16.233 16.666-16.233c9.204 0 16.665 7.268 16.665 16.233s-7.461 16.233-16.665 16.233z" fill="#116A7D"/>
    <path d="M59.081 154.504v24.863a67.519 67.519 0 0017.951 2.423h2.418c1.556 0 3.109.048 4.657.144v-10.756l-.037-.046a1.04 1.04 0 01-.034-.047l-7.881-11.232 2.278-1.516 5.674 8.086v-13.806h2.759v6.066l5.936-5.404 1.882 1.957-7.797 7.098-.021.019v19.802a74.24 74.24 0 0121.548 5.448l3.187 1.343c17.59 7.417 31.887 20.096 40.53 35.942l4.869 8.928V325H0V158.045c13.794 0 28.049 4.079 38.943 11.813 5.076 3.604 10.696 6.44 16.647 8.441v-34.963l-.028-.024-9.866-8.982 2.382-2.477 7.512 6.839v-7.676h3.491v17.471l7.18-10.233 2.883 1.918-9.973 14.215a2.15 2.15 0 01-.09.117z" fill="#fff"/>
  </g>
  <path opacity=".24" d="M171.368 297.78l-1.016.88c-1.015.87-1.592 2.1-1.592 3.38v11.01s40.25-13.74 38.294-45.6l-35.686 30.33z" fill="url(#paint0_linear)"/>
  <path d="M172.789 287.44L168 289.045l.172 6.975c.096 2.43 2.8 3.97 5.152 2.94 10.602-4.67 35.761-15.87 34.649-40.55l-14.172 12.05-21.012 16.98z" fill="#116A7D"/>
  <path d="M168 289.045c1.86-3.36 9.299-16.445 21.932-26.915 3.42-2.83 12.879-9.9 16.064-12.27.502-.38 1.25-.13 1.389.47 1.389 6.11 4.263 32.435-39.385 38.715z" fill="#E8F9F7"/>
  <path d="M163.726 263.32l-3.398-2.14a.666.666 0 01-.203-.96l2.052-2.86c.224-.32.694-.4 1.026-.19l2.597 1.63c1.859 1.17 3.259 2.88 3.986 4.87l.235.45-.662.83-1.39-.11a10.43 10.43 0 01-4.243-1.52z" fill="#116A7D"/>
  <path d="M206.912 287.196l-37.399-23.53-.662.921 37.399 23.53.662-.921z" fill="#116A7D"/>
  <path d="M185.73 268.317c.023-1.745-1.322-3.175-3.004-3.195-1.683-.019-3.065 1.38-3.088 3.125-.023 1.745 1.322 3.175 3.004 3.195 1.683.019 3.065-1.38 3.088-3.125z" fill="#116A7D"/>
  <path d="M191.397 279.08c-.652-1.26-2.17-4.25-3.046-5.98-.406-.79-1.251-1.3-2.181-1.31l-.587-.01c-.62-.01-1.112-.48-1.101-1.06l.01-.99-3.43-.04-.011.99c-.011.58-.513 1.04-1.133 1.03h-.224a3.835 3.835 0 00-2.715 1.07l-1.614 1.59c-.502.49-.556 1.27-.075 1.79.513.56 1.4.62 1.988.15l.449-.36c.16-.12.396-.02.396.17l-.054 3.85c-.032 2.45 2.084 4.47 4.713 4.47h.139c2.459.01 4.468-1.84 4.5-4.15l.021-1.88c0-.1.075-.2.182-.22a.25.25 0 01.267.11c.182.3.705 1.18 1.122 1.89a1.4 1.4 0 001.636.6c.737-.23 1.09-1.04.748-1.71z" fill="#116A7D"/>
  <path d="M190.125 277.25c.363-.54 1.186-.59 1.614-.09l.395.45c.257.29.299.7.118 1.03l-.93 1.66-.845-1.24M198.292 255.19c.023-1.745-1.322-3.176-3.004-3.195-1.682-.019-3.065 1.38-3.087 3.125-.023 1.745 1.322 3.175 3.004 3.194 1.682.02 3.064-1.379 3.087-3.124z" fill="#116A7D"/>
  <path d="M203.954 265.95c-.652-1.26-2.169-4.25-3.046-5.98-.406-.79-1.25-1.3-2.18-1.31l-.588-.01c-.62-.01-1.111-.48-1.101-1.06l.011-.99-3.431-.04-.01.99c-.011.58-.513 1.04-1.133 1.03h-.086c-1.122-.01-2.191.41-2.96 1.17l-1.518 1.49c-.502.49-.556 1.27-.075 1.79.513.56 1.4.62 1.988.15l.449-.36c.16-.12.396-.02.396.17l-.054 3.66c-.032 2.45 2.084 4.47 4.713 4.47h.139c2.459.01 4.468-1.84 4.5-4.15l.021-1.68c0-.1.075-.2.182-.22a.25.25 0 01.267.11c.182.3.706 1.18 1.122 1.89a1.4 1.4 0 001.636.6c.758-.25 1.1-1.05.758-1.72zM179.395 250.84l-3.399-2.14a.666.666 0 01-.203-.96l2.052-2.86c.224-.32.695-.4 1.026-.19l2.597 1.63c1.86 1.17 3.26 2.88 3.986 4.87l.236.45-.663.83-1.389-.11a10.51 10.51 0 01-4.243-1.52z" fill="#116A7D"/>
  <path d="M222.574 274.706l-37.399-23.531-.662.921 37.399 23.531.662-.921z" fill="#116A7D"/>
  <path d="M203.805 267.3l2.276-2.31c.406-.41.374-1.04-.064-1.42a1.121 1.121 0 00-1.518.06l-2.276 2.31 1.582 1.36z" fill="#116A7D"/>
  <path d="M227.376 273.899l-11.414-.131-.043 3.34 11.413.131.044-3.34zM214.497 287.019l-11.413-.131-.044 3.339 11.413.132.044-3.34z" fill="#fff"/>
  <defs>
    <linearGradient id="paint0_linear" x1="186.878" y1="288.819" x2="191.434" y2="296.123" gradientUnits="userSpaceOnUse">
      <stop stop-color="#116A7D"/>
      <stop offset="1" stop-color="#fff"/>
    </linearGradient>
  </defs>
</svg>
